static/img/bg-footer.svg

<?xml version="1.0" encoding="utf-8"?>
<!-- Generator: Adobe Illustrator 15.1.0, SVG Export Plug-In  -->
<!DOCTYPE svg PUBLIC "-//W3C//DTD SVG 1.1//EN" "http://www.w3.org/Graphics/SVG/1.1/DTD/svg11.dtd" [
	<!ENTITY ns_flows "http://ns.adobe.com/Flows/1.0/">
]>
<svg version="1.1"
	 xmlns="http://www.w3.org/2000/svg" xmlns:xlink="http://www.w3.org/1999/xlink" xmlns:a="http://ns.adobe.com/AdobeSVGViewerExtensions/3.0/"
	 x="0px" y="0px" width="140px" height="120px" viewBox="-2 -1 140 120" overflow="visible" enable-background="new -2 -1 140 120"
	 xml:space="preserve">
<defs>
</defs>
<path fill="#A0C023" d="M299.66,162.7c-18.1,40.09-57.71,67.94-116.4,79.87C88.49,261.83,26.39,222.71,7.83,131.42
	C3.84,111.79,1.71,95.37,0,69.24l46.52-9.46c-2.38,7.53-4.5,14.99-6.47,22.71c-12.27,47.98-1.85,73.78,32.42,82.55
	c36.37,9.31,61.46-9.69,90.99-75.09c7.46-16.51,15.2-35.99,23.47-58.71l98.5-20.02c11.15,19.39,16.99,36.25,21.45,58.21
	C314.12,105.06,311.49,136.49,299.66,162.7"/>
<path fill="#C0D66F" d="M186.93,31.25L46.52,59.78C52.24,41.66,59.44,23.18,69.67,0l117.67,30.12
	C187.2,30.49,187.06,30.87,186.93,31.25"/>
<path fill="#84AA13" d="M163.46,89.95c-29.53,65.4-54.63,84.39-90.99,75.09c-34.27-8.77-44.7-34.57-32.42-82.55
	c1.97-7.72,4.1-15.18,6.47-22.71l140.41-28.54C178.66,53.96,170.92,73.44,163.46,89.95"/>
</svg>

<?xml version="1.0" encoding="UTF-8" standalone="no"?>
<svg width="157px" height="150px" viewBox="0 0 157 150" version="1.1" xmlns="http://www.w3.org/2000/svg" xmlns:xlink="http://www.w3.org/1999/xlink" xmlns:sketch="http://www.bohemiancoding.com/sketch/ns">
    <title>bg-footer</title>
    <description>Created with Sketch (http://www.bohemiancoding.com/sketch)</description>
    <defs></defs>
    <g id="Page-1" stroke="none" stroke-width="1" fill="none" fill-rule="evenodd" sketch:type="MSPage">
        <g id="bg-footer" sketch:type="MSLayerGroup" transform="translate(22.000000, 18.000000)">
            <path d="M299.66,162.7 C281.56,202.79 241.95,230.64 183.26,242.57 C88.49,261.83 26.39,222.71 7.83,131.42 C3.84,111.79 1.71,95.37 0,69.24 L46.52,59.78 C44.14,67.31 42.02,74.77 40.05,82.49 C27.78,130.47 38.2,156.27 72.47,165.04 C108.84,174.35 133.93,155.35 163.46,89.95 C170.92,73.44 178.66,53.96 186.93,31.24 L285.43,11.22 C296.58,30.61 302.42,47.47 306.88,69.43 C314.12,105.06 311.49,136.49 299.66,162.7" id="Shape" fill="#3EB88A" sketch:type="MSShapeGroup"></path>
            <path d="M186.93,31.25 L46.52,59.78 C52.24,41.66 59.44,23.18 69.67,0 L187.34,30.12 C187.2,30.49 187.06,30.87 186.93,31.25" id="Shape" fill="#89E7C3" sketch:type="MSShapeGroup"></path>
            <path d="M72.47,165.04 C38.2,156.27 27.77,130.47 40.05,82.49 C42.02,74.77 44.15,67.31 46.52,59.78 L186.93,31.24 C178.66,53.96 170.92,73.44 163.46,89.95 C133.93,155.35 108.83,174.34 72.47,165.04 Z M72.47,165.04" id="Shape" fill="#0BAA6E" sketch:type="MSShapeGroup"></path>
        </g>
    </g>
</svg>
